usr/share/icons/biglinux-icons-material-dark/symbolic/status/dropboxstatus-busy-symbolic.svg

<svg xmlns="http://www.w3.org/2000/svg" viewBox="0 0 22 22">
  <defs id="defs3051">
    <style type="text/css" id="current-color-scheme">
      .ColorScheme-Text {
        color:#232629;
      }
      </style>
  </defs>
 <path style="fill:currentColor;fill-opacity:1;stroke:none" 
     d="M 7.4648438,2.9667969 2.0175781,5.8808594 5.6386719,8.9511719 2.3652344,12.214844 7.828125,15.130859 11,12 l 3.123047,2.669922 5.275391,-3.009766 c -0.0047,0.0035 -3.419922,-2.9667966 -3.419922,-2.9667966 L 18.996094,6.0351562 14.5,3 10.992188,5.9921875 Z M 7.2675781,4.0664062 10.0625,6.5058594 6.578125,8.3925781 3.71875,6.0429688 Z M 14.460937,4.0917969 17.587891,6.1816406 15.083984,8.2089844 11.894531,6.484375 Z M 11,7 14.486328,9 11,11 7.5136719,9 Z M 6.4257812,9.5253906 10.078125,11.501953 7.6289062,13.890625 4.015625,11.894531 Z m 9.1093748,0.021484 2.310547,1.984375 -3.673828,1.941406 -2.236328,-1.978515 z M 16,13.636719 15,14.222656 15,16.705078 11,19 7,16.705078 7,14.742188 6,14.207031 6,17.294922 11,20 16,17.294922 Z"
     class="ColorScheme-Text"
     /> 
  <path
     style="color:#3daee9;fill:currentColor;fill-opacity:1;stroke:none"
     d="M 16 12 C 13.784 12 12 13.784 12 16 C 12 18.216 13.784 20 16 20 C 18.216 20 20 18.216 20 16 C 20 13.784 18.216 12 16 12 z "
     id="path8" />
  <path
     style="fill:#ffffff;fill-opacity:1;stroke:none;stroke-linecap:butt;stroke-linejoin:round"
     d="M 15.949219 13.003906 A 3 3 0 0 0 14.265625 13.558594 L 14.984375 14.277344 A 2 2 0 0 1 17.414062 14.585938 A 2 2 0 0 1 17.720703 17.013672 L 18.445312 17.738281 A 3 3 0 0 0 18.121094 13.878906 A 3 3 0 0 0 15.949219 13.003906 z M 13.554688 14.261719 A 3 3 0 0 0 13.878906 18.121094 A 3 3 0 0 0 17.734375 18.441406 L 17.015625 17.722656 A 2 2 0 0 1 14.585938 17.414062 A 2 2 0 0 1 14.279297 14.986328 L 13.554688 14.261719 z "
     id="path10" />
</svg>

<svg xmlns="http://www.w3.org/2000/svg" viewBox="0 0 22 22">
<defs id="defs3051">
<style id="current-color-scheme" type="text/css">
.ColorScheme-Contrast{color:#232629}
</style>
</defs>
<path d="M7.465 2.967 2.018 5.88l3.62 3.07-3.273 3.264 5.463 2.916L11 12l3.123 2.67 5.275-3.01c-.004.004-3.42-2.967-3.42-2.967l3.018-2.658L14.5 3l-3.508 2.992Zm-.197 1.1 2.795 2.439-3.485 1.887-2.86-2.35Zm7.193.025 3.127 2.09-2.504 2.027-3.19-1.725ZM11 7l3.486 2L11 11 7.514 9ZM6.426 9.525l3.652 1.977-2.45 2.389-3.612-1.996Zm9.11.022 2.31 1.984-3.674 1.942-2.236-1.979zm.464 4.09-1 .586v2.482L11 19l-4-2.295v-1.963l-1-.535v3.088L11 20l5-2.705Z" class="ColorScheme-Contrast" style="fill:currentColor;fill-opacity:1;stroke:none"/>
<path id="path8" d="M16 12c-2.216 0-4 1.784-4 4s1.784 4 4 4 4-1.784 4-4-1.784-4-4-4" style="color:#3daee9;fill:currentColor;fill-opacity:1;stroke:none"/>
<path id="path10" d="M15.95 13.004a3 3 0 0 0-1.684.555l.718.718a2 2 0 0 1 2.43.309 2 2 0 0 1 .307 2.428l.724.724a3 3 0 0 0-.324-3.86 3 3 0 0 0-2.172-.874m-2.395 1.258a3 3 0 0 0 .324 3.86 3 3 0 0 0 3.855.32l-.718-.72a2 2 0 0 1-2.43-.308 2 2 0 0 1-.307-2.428z" style="fill:#fff;fill-opacity:1;stroke:none;stroke-linecap:butt;stroke-linejoin:round"/>
</svg>
